X: 2601
T: Baloo, Lammy
R: waltz
M: 3/4
K: Dmixolydian
D2|E2F2GF|E2D2D2|E2F2B2|A4D2|
E2F2GF|E2F2B2|AF3ED|D4c2|
B2A2F2|EFA2c2|B2A2F<A|A4c2|
B2A2F2|EFA2B2|AF3EF|D4B,2|
D4B2|AF3EF|D4B,2|D4||

